X:141
T:Irishman's Blackthorn (reel), The 
T:Eel in the Sink, Hills of Kesh
B:CRE2.244  (Maide Draighin an Eireannaigh)
F:file ID: cre.2/141ir_black
M:C
R:reel
Q:180
K:Am
e2AB c2e2|dGBG dG (3Bcd|e2AB cBcd|g^fgd BAA2:|
a2ea aged|Bde^f g2gb|a2eb age^f|g^fgd BAA2|
|:a2ea aged|Bde^f g2gb|a^faf gfef|g^fgd BAA2||
e2AB c2e2|dGBG dGBd|e2AB cBcd|g^fgd BAA2:|

%%%

